polaris-icons/icons/newicons/ClipboardMinor.svg

<svg width="20" height="20" viewBox="0 0 20 20" fill="none" xmlns="http://www.w3.org/2000/svg">
<path fill-rule="evenodd" clip-rule="evenodd" d="M6.51425 3.76001C6.63281 2.76859 7.47665 2 8.5 2H11.5C12.5234 2 13.3672 2.76859 13.4857 3.76001C14.8942 3.87959 16 5.06068 16 6.50005V15.25C16 16.7688 14.7688 18 13.25 18H6.75C5.23122 18 4 16.7688 4 15.25V6.50005C4 5.06068 5.10583 3.87959 6.51425 3.76001ZM8.5 3.5H11.5C11.7761 3.5 12 3.72386 12 4V5C12 5.27614 11.7761 5.5 11.5 5.5H8.5C8.22386 5.5 8 5.27614 8 5V4C8 3.72386 8.22386 3.5 8.5 3.5ZM6.50065 5.05162C6.50254 5.12599 6.50848 5.19935 6.51826 5.27149C5.93863 5.38014 5.5 5.88887 5.5 6.50005V15.25C5.5 15.9404 6.05964 16.5 6.75 16.5H13.25C13.9404 16.5 14.5 15.9404 14.5 15.25V6.50005C14.5 5.88887 14.0614 5.38015 13.4817 5.27149C13.3493 6.24764 12.5125 7 11.5 7H8.5C7.41269 7 6.52803 6.13233 6.50065 5.05162Z" fill="black"/>
</svg>

<svg viewBox="0 0 20 20" fill="none" xmlns="http://www.w3.org/2000/svg"><path fill-rule="evenodd" clip-rule="evenodd" d="M6.514 3.76a2 2 0 0 1 1.986-1.76h3a2 2 0 0 1 1.986 1.76 2.75 2.75 0 0 1 2.514 2.74v8.75a2.75 2.75 0 0 1-2.75 2.75h-6.5a2.75 2.75 0 0 1-2.75-2.75v-8.75a2.75 2.75 0 0 1 2.514-2.74Zm1.986-.26h3a.5.5 0 0 1 .5.5v1a.5.5 0 0 1-.5.5h-3a.5.5 0 0 1-.5-.5v-1a.5.5 0 0 1 .5-.5Zm-2 1.552c.003.074.008.147.018.22a1.25 1.25 0 0 0-1.018 1.228v8.75c0 .69.56 1.25 1.25 1.25h6.5c.69 0 1.25-.56 1.25-1.25v-8.75a1.25 1.25 0 0 0-1.018-1.229 2 2 0 0 1-1.982 1.729h-3a2 2 0 0 1-2-1.948Z" fill="#000"/></svg>
